public/arrows_all-to-1.svg

<svg height="255" width="95" fill="none" xmlns="http://www.w3.org/2000/svg" viewBox="0 0 93 259"><path fill-rule="evenodd" clip-rule="evenodd" d="M92.5 6 82.5.227V5h-2.133a1 1 0 1 0 0 2H82.5v4.774L92.5 6Zm-91-1a1 1 0 0 0 0 2h2.022a1 1 0 1 0 0-2H1.5Zm8.089 0a1 1 0 1 0 0 2h4.044a1 1 0 1 0 0-2H9.59ZM19.7 5a1 1 0 1 0 0 2h4.044a1 1 0 1 0 0-2H19.7Zm10.111 0a1 1 0 1 0 0 2h4.045a1 1 0 0 0 0-2H29.81Zm10.111 0a1 1 0 1 0 0 2h4.045a1 1 0 1 0 0-2h-4.045Zm10.22 2c-.609 0-1.193.097-1.74.275a1 1 0 1 1-.617-1.902A7.637 7.637 0 0 1 50.033 5h4.045a1 1 0 1 1 0 2h-3.936Zm10.002-2a1 1 0 0 0 0 2h4.045a1 1 0 1 0 0-2h-4.045Zm10.112 0a1 1 0 1 0 0 2H74.3a1 1 0 1 0 0-2h-4.044ZM1.5 91a1 1 0 1 1 0-2h1.867a1 1 0 1 1 0 2H1.5Zm7.467 0a1 1 0 1 1 0-2H12.7a1 1 0 1 1 0 2H8.967Zm9.333 0a1 1 0 1 1 0-2h3.733a1 1 0 1 1 0 2H18.3Zm9.333 0a1 1 0 1 1 0-2H29.5c.693 0 1.373-.054 2.036-.158a1 1 0 0 1 .31 1.975c-.765.12-1.549.183-2.346.183h-1.867Zm10.685-2.864a1 1 0 0 1-1.177-1.617 13.083 13.083 0 0 0 2.878-2.878 1 1 0 0 1 1.617 1.177 15.085 15.085 0 0 1-3.318 3.318Zm6-9.79a1 1 0 0 1-1.976-.31A13.11 13.11 0 0 0 42.5 76v-2.112a1 1 0 1 1 2 0V76c0 .797-.062 1.581-.182 2.346Zm.182-10.793a1 1 0 1 1-2 0V63.33a1 1 0 0 1 2 0v4.223Zm0-10.558a1 1 0 1 1-2 0V52.77a1 1 0 1 1 2 0v4.224Zm0-10.559a1 1 0 1 1-2 0v-4.223a1 1 0 1 1 2 0v4.223Zm0-10.558a1 1 0 1 1-2 0v-4.224a1 1 0 1 1 2 0v4.224Zm0-10.559a1 1 0 1 1-2 0v-4.223a1 1 0 1 1 2 0v4.223Zm0-10.558a1 1 0 1 1-2 0v-2.112c0-.823.13-1.618.373-2.364a1 1 0 1 1 1.902.618 5.644 5.644 0 0 0-.275 1.746v2.112ZM1.5 259a1 1 0 0 1 0-2h1.867a1 1 0 0 1 0 2H1.5Zm7.467 0a1 1 0 0 1 0-2H12.7a1 1 0 0 1 0 2H8.967Zm9.333 0a1 1 0 0 1 0-2h3.733a1 1 0 0 1 0 2H18.3Zm9.333 0a1 1 0 0 1 0-2H29.5c.693 0 1.373-.054 2.036-.158a1 1 0 1 1 .31 1.975A15.01 15.01 0 0 1 29.5 259h-1.867Zm10.685-2.864a1 1 0 0 1-1.177-1.617 13.089 13.089 0 0 0 2.878-2.878 1 1 0 1 1 1.617 1.177 15.088 15.088 0 0 1-3.318 3.318Zm6-9.79a1 1 0 0 1-1.976-.31A13.12 13.12 0 0 0 42.5 244v-2a1 1 0 0 1 2 0v2c0 .797-.062 1.581-.182 2.346ZM44.5 236a1 1 0 0 1-2 0v-4a1 1 0 0 1 2 0v4Zm0-10a1 1 0 0 1-2 0v-4a1 1 0 0 1 2 0v4Zm0-10a1 1 0 0 1-2 0v-4a1 1 0 0 1 2 0v4Zm0-10a1 1 0 0 1-2 0v-4a1 1 0 0 1 2 0v4Zm0-10a1 1 0 0 1-2 0v-4a1 1 0 0 1 2 0v4Zm0-10a1 1 0 0 1-2 0v-4a1 1 0 0 1 2 0v4Zm0-10a1 1 0 0 1-2 0v-2a1 1 0 0 1 2 0v2Zm-44-2a1 1 0 0 0 1 1h1.867a1 1 0 0 0 0-2H1.5a1 1 0 0 0-1 1Zm7.467 0a1 1 0 0 0 1 1H12.7a1 1 0 0 0 0-2H8.967a1 1 0 0 0-1 1Zm9.333 0a1 1 0 0 0 1 1h3.733a1 1 0 0 0 0-2H18.3a1 1 0 0 0-1 1Zm9.333 0a1 1 0 0 0 1 1H29.5c.797 0 1.581-.062 2.346-.183a1 1 0 1 0-.31-1.975c-.663.104-1.343.158-2.036.158h-1.867a1 1 0 0 0-1 1Zm10.288-2.084a1 1 0 0 0 1.397.22 15.088 15.088 0 0 0 3.318-3.318 1 1 0 0 0-1.617-1.177 13.089 13.089 0 0 1-2.878 2.878 1 1 0 0 0-.22 1.397Zm6.253-8.737a1 1 0 0 0 1.144-.833c.12-.765.182-1.549.182-2.346v-2a1 1 0 0 0-2 0v2c0 .693-.054 1.373-.158 2.036a1 1 0 0 0 .832 1.143ZM43.5 153a1 1 0 0 0 1-1v-4a1 1 0 0 0-2 0v4a1 1 0 0 0 1 1Zm0-10a1 1 0 0 0 1-1v-4a1 1 0 0 0-2 0v4a1 1 0 0 0 1 1Zm0-10a1 1 0 0 0 1-1v-4a1 1 0 0 0-2 0v4a1 1 0 0 0 1 1Zm0-10a1 1 0 0 0 1-1v-4a1 1 0 0 0-2 0v4a1 1 0 0 0 1 1Zm0-10a1 1 0 0 0 1-1v-4a1 1 0 0 0-2 0v4a1 1 0 0 0 1 1Zm0-10a1 1 0 0 0 1-1v-4a1 1 0 1 0-2 0v4a1 1 0 0 0 1 1Zm0-10a1 1 0 0 0 1-1v-2a1 1 0 1 0-2 0v2a1 1 0 0 0 1 1Z" fill="#666"/></svg>

<?xml version="1.0" encoding="utf-8"?>
<svg height="255" width="95" viewBox="0 0 93 259" fill="none" xmlns="http://www.w3.org/2000/svg">
  <path fill-rule="evenodd" clip-rule="evenodd" d="M 1.5 5 C 0.73 5 0.24900000000000003 5.833 0.634 6.5 C 0.8130000000000001 6.809 1.143 7 1.5 7 L 3.5220000000000002 7 C 4.292 7 4.773 6.167 4.388 5.5 C 4.209 5.191 3.879 5 3.5220000000000002 5 L 1.5 5 Z M 9.589 5 C 8.819 5 8.338 5.833 8.723 6.5 C 8.902 6.809 9.232 7 9.589 7 L 13.633 7 C 14.403 7 14.884 6.167 14.499 5.5 C 14.32 5.191 13.99 5 13.633 5 L 9.59 5 L 9.589 5 Z M 19.7 5 C 18.93 5 18.449 5.833 18.834 6.5 C 19.013 6.809 19.343 7 19.7 7 L 23.744 7 C 24.514 7 24.995 6.167 24.61 5.5 C 24.431 5.191 24.101 5 23.744 5 L 19.7 5 Z M 29.811 5 C 29.041 5 28.56 5.833 28.945 6.5 C 29.124 6.809 29.454 7 29.811 7 L 33.856 7 C 34.626 7 35.107 6.167 34.722 5.5 C 34.543 5.191 34.213 5 33.856 5 L 29.81 5 L 29.811 5 Z M 39.922 5 C 39.152 5 38.671 5.833 39.056 6.5 C 39.235 6.809 39.565 7 39.922 7 L 43.967 7 C 44.737 7 45.218 6.167 44.833 5.5 C 44.654 5.191 44.324 5 43.967 5 L 39.922 5 Z M 50.142 7 C 49.533 7 48.949 7.097 48.402 7.275 C 47.675 7.5280000000000005 46.947 6.898 47.092 6.142 C 47.162 5.777 47.429 5.48 47.785 5.373 C 48.511 5.1370000000000005 49.269 5.011 50.033 5 L 54.078 5 C 54.848 5 55.329 5.833 54.944 6.5 C 54.765 6.809 54.435 7 54.078 7 L 50.142 7 Z M 60.144 5 C 59.374 5 58.893 5.833 59.278 6.5 C 59.457 6.809 59.787 7 60.144 7 L 64.189 7 C 64.959 7 65.44 6.167 65.055 5.5 C 64.876 5.191 64.546 5 64.189 5 L 60.144 5 Z M 70.256 5 C 69.486 5 69.005 5.833 69.39 6.5 C 69.569 6.809 69.899 7 70.256 7 L 74.3 7 C 75.07 7 75.551 6.167 75.166 5.5 C 74.987 5.191 74.657 5 74.3 5 L 70.256 5 Z M 1.5 91 C 0.73 91 0.24900000000000003 90.167 0.634 89.5 C 0.8130000000000001 89.191 1.143 89 1.5 89 L 3.367 89 C 4.1370000000000005 89 4.618 89.833 4.233 90.5 C 4.054 90.809 3.724 91 3.367 91 L 1.5 91 Z M 8.967 91 C 8.197 91 7.716 90.167 8.101 89.5 C 8.28 89.191 8.61 89 8.967 89 L 12.7 89 C 13.47 89 13.951 89.833 13.566 90.5 C 13.387 90.809 13.057 91 12.7 91 L 8.967 91 Z M 18.3 91 C 17.53 91 17.049 90.167 17.434 89.5 C 17.613 89.191 17.943 89 18.3 89 L 22.033 89 C 22.803 89 23.284 89.833 22.899 90.5 C 22.72 90.809 22.39 91 22.033 91 L 18.3 91 Z M 27.633 91 C 26.863 91 26.382 90.167 26.767 89.5 C 26.946 89.191 27.276 89 27.633 89 L 29.5 89 C 30.193 89 30.873 88.946 31.536 88.842 C 32.3 88.744 32.882 89.51 32.585 90.22 C 32.455 90.531 32.177 90.755 31.846 90.817 C 31.081 90.937 30.297 91 29.5 91 L 27.633 91 Z M 38.318 88.136 C 37.696 88.589 36.816 88.198 36.735 87.433 C 36.697 87.078 36.852 86.729 37.141 86.519 C 38.245 85.716 39.216 84.745 40.019 83.641 C 40.472 83.019 41.429 83.12 41.741 83.824 C 41.886 84.15 41.846000000000004 84.529 41.636 84.818 C 40.71 86.09 39.59 87.21 38.318 88.136 Z M 44.318 78.346 C 44.199 79.107 43.301 79.453 42.702 78.969 C 42.424 78.745 42.287 78.389 42.342 78.036 C 42.448 77.362 42.5 76.682 42.5 76 L 42.5 73.888 C 42.5 73.118 43.333 72.637 44 73.022 C 44.309 73.201 44.5 73.531 44.5 73.888 L 44.5 76 C 44.5 76.797 44.438 77.581 44.318 78.346 Z M 44.5 67.553 C 44.5 68.323 43.667 68.804 43 68.419 C 42.691 68.24 42.5 67.91 42.5 67.553 L 42.5 63.33 C 42.5 62.56 43.333 62.079 44 62.464 C 44.309 62.643 44.5 62.973 44.5 63.33 L 44.5 67.553 Z M 44.5 56.995 C 44.5 57.765 43.667 58.246 43 57.861 C 42.691 57.682 42.5 57.352 42.5 56.995 L 42.5 52.77 C 42.5 52 43.333 51.519 44 51.904 C 44.309 52.083 44.5 52.413 44.5 52.77 L 44.5 56.994 L 44.5 56.995 Z M 44.5 46.436 C 44.5 47.206 43.667 47.687 43 47.302 C 42.691 47.123 42.5 46.793 42.5 46.436 L 42.5 42.213 C 42.5 41.443 43.333 40.962 44 41.347 C 44.309 41.526 44.5 41.856 44.5 42.213 L 44.5 46.436 Z M 44.5 35.878 C 44.5 36.648 43.667 37.129 43 36.744 C 42.691 36.565 42.5 36.235 42.5 35.878 L 42.5 31.654 C 42.5 30.884 43.333 30.403 44 30.788 C 44.309 30.967 44.5 31.297 44.5 31.654 L 44.5 35.878 Z M 44.5 25.319 C 44.5 26.089 43.667 26.57 43 26.185 C 42.691 26.006 42.5 25.676 42.5 25.319 L 42.5 21.096 C 42.5 20.326 43.333 19.845 44 20.23 C 44.309 20.409 44.5 20.739 44.5 21.096 L 44.5 25.319 Z M 44.5 14.761 C 44.5 15.531 43.667 16.012 43 15.627 C 42.691 15.448 42.5 15.118 42.5 14.761 L 42.5 12.649000000000001 C 42.5 11.826 42.63 11.031 42.873 10.285 C 43.103 9.55 44.042 9.34 44.563 9.907 C 44.81 10.175 44.892 10.557 44.775 10.903 C 44.592 11.467 44.499 12.056 44.5 12.649000000000001 L 44.5 14.761 Z M 0.5 174 C 0.5 174.552 0.9480000000000001 175 1.5 175 L 3.367 175 C 4.1370000000000005 175 4.618 174.167 4.233 173.5 C 4.054 173.191 3.724 173 3.367 173 L 1.5 173 C 0.9480000000000001 173 0.5 173.448 0.5 174 Z M 7.967 174 C 7.967 174.552 8.415 175 8.967 175 L 12.7 175 C 13.47 175 13.951 174.167 13.566 173.5 C 13.387 173.191 13.057 173 12.7 173 L 8.967 173 C 8.415 173 7.967 173.448 7.967 174 Z M 17.3 174 C 17.3 174.552 17.748 175 18.3 175 L 22.033 175 C 22.803 175 23.284 174.167 22.899 173.5 C 22.72 173.191 22.39 173 22.033 173 L 18.3 173 C 17.748 173 17.3 173.448 17.3 174 Z M 26.633 174 C 26.633 174.552 27.081 175 27.633 175 L 29.5 175 C 30.297 175 31.081 174.938 31.846 174.817 C 32.61 174.719 32.981 173.832 32.515 173.219 C 32.286 172.919 31.907 172.773 31.536 172.842 C 30.873 172.946 30.193 173 29.5 173 L 27.633 173 C 27.081 173 26.633 173.448 26.633 174 Z M 36.921 171.916 C 37.246 172.363 37.871 172.461 38.318 172.136 C 39.59 171.21 40.71 170.09 41.636 168.818 C 42.089 168.196 41.698 167.316 40.933 167.235 C 40.578 167.197 40.229 167.352 40.019 167.641 C 39.216 168.745 38.245 169.716 37.141 170.519 C 36.694 170.844 36.596 171.469 36.921 171.916 Z M 43.174 163.179 C 43.72 163.265 44.232 162.892 44.318 162.346 C 44.438 161.581 44.5 160.797 44.5 160 L 44.5 158 C 44.5 157.23 43.667 156.749 43 157.134 C 42.691 157.313 42.5 157.643 42.5 158 L 42.5 160 C 42.5 160.693 42.446 161.373 42.342 162.036 C 42.256 162.581 42.629 163.093 43.174 163.179 Z M 43.5 153 C 44.052 153 44.5 152.552 44.5 152 L 44.5 148 C 44.5 147.23 43.667 146.749 43 147.134 C 42.691 147.313 42.5 147.643 42.5 148 L 42.5 152 C 42.5 152.552 42.948 153 43.5 153 Z M 43.5 143 C 44.052 143 44.5 142.552 44.5 142 L 44.5 138 C 44.5 137.23 43.667 136.749 43 137.134 C 42.691 137.313 42.5 137.643 42.5 138 L 42.5 142 C 42.5 142.552 42.948 143 43.5 143 Z M 43.5 133 C 44.052 133 44.5 132.552 44.5 132 L 44.5 128 C 44.5 127.23 43.667 126.749 43 127.134 C 42.691 127.313 42.5 127.643 42.5 128 L 42.5 132 C 42.5 132.552 42.948 133 43.5 133 Z M 43.5 123 C 44.052 123 44.5 122.552 44.5 122 L 44.5 118 C 44.5 117.23 43.667 116.749 43 117.134 C 42.691 117.313 42.5 117.643 42.5 118 L 42.5 122 C 42.5 122.552 42.948 123 43.5 123 Z M 43.5 113 C 44.052 113 44.5 112.552 44.5 112 L 44.5 108 C 44.5 107.23 43.667 106.749 43 107.134 C 42.691 107.313 42.5 107.643 42.5 108 L 42.5 112 C 42.5 112.552 42.948 113 43.5 113 Z M 43.5 103 C 44.052 103 44.5 102.552 44.5 102 L 44.5 98 C 44.5 97.23 43.667 96.749 43 97.134 C 42.691 97.313 42.5 97.643 42.5 98 L 42.5 102 C 42.5 102.552 42.948 103 43.5 103 Z M 43.5 93 C 44.052 93 44.5 92.552 44.5 92 L 44.5 90 C 44.5 89.23 43.667 88.749 43 89.134 C 42.691 89.313 42.5 89.643 42.5 90 L 42.5 92 C 42.5 92.552 42.948 93 43.5 93 Z M 92.5 6 L 82.5 0.227 L 82.5 5 L 80.367 5 C 79.597 5 79.116 5.833 79.501 6.5 C 79.68 6.809 80.01 7 80.367 7 L 82.5 7 L 82.5 11.774000000000001 L 92.5 6 Z" fill="#666" style=""/>
</svg>
